X: 21881
T: IRISHMAN'S FANCY -- American Hornpipe
R: hornpipe, reel
B: K\"ohler's Violin Repository, v.2, 1885 p.188 #1
F: http://www.archive.org/details/klersviolinrepos02rugg
Z: 2012 John Chambers <jc:trillian.mit.edu>
N: 2nd part has initial repeat, no final repeat; added final repeat.
M: C|
L: 1/8
K: Bdor
!segno!|:\
vf2(Bb) fBde | f2(fg) eAce | f2(Bb) fBde | fgaf eAce |\
fB{cBA}B2 (FB)de | fBdg eAce | fB~B2 (fB)de | fgaf eAce :|
|:\
vfBbB fBdf | fBbB eAce | fBbB fBde | fgaf eAce |\
fBbB fBdf | fBbB eAce | (fB)(bB) (aB)(gB) | fgaf eAce :|

%%sep 2 1 500

